!!!SOCIAL_FUNCTION:	songs of the drum-presentation ceremony
!!!REG: Great Lakes
!!!PDT:	1913
!!!OTL: No_76_Fifth_Song_of_the_Dog_Feast.krn
**kern	**kern
*staff2	*staff1
=1-	=1-
*clefF4	*clefF4
*k[f#]	*k[f#]
*M5/4	*M5/4
8GG/L	8d\L
8GG/	8d\J
8GG/	4d\
8GG/	.
8GG/	16B\LK
.	8.d\J
8GG/J	.
8GG/L	16B\LK
.	8.d\J
8GG/	.
8GG/	4B;\
8GG/J	.
=2	=2
1r	8d\L
.	8d\J
.	4d\
.	16B\LK
.	8.d\J
.	16B\LK
.	8.d\J
4r	4B;\
=3!|:	=3!|:
1r	8d\L
.	8d\J
.	4d\
.	8B\L
.	8A\J
.	16G\LK
.	8.G\
4r	16E\K
.	8.D\J
=4	=4
1r	8E\L
.	8D\J
.	4D\
.	16BB/LK
.	8.D/J
.	16BB/LK
.	8.D/J
4r	4BB/
=5	=5
1r	8G\L
.	8G\
.	8.A\
.	16A\Jk
.	12G\L
.	12E\
.	12D\J
.	16D\LK
.	8.E\J
4r	[4D\
=6||	=6||
*M2/4	*M2/4
2r	8D\L]
.	8E\J
.	8.D\L
.	16D\Jk
=7	=7
2r	[2D\
=8	=8
2r	2D\]
==:|!	==:|!
*-	*-
